src/icons/icons_set_03/022-itineraire.svg

<svg height="50" viewBox="0 0 50 50" width="50" xmlns="http://www.w3.org/2000/svg"><path d="m38.005 2.00000118v-2.00000118l5.9914286 4.18430677-5.9914286 4.31650956v-2.50081064c-.2963904.00096507-.8957917.12175931-1.4681874.46518034-.9551793.57308029-1.5296697 1.60711395-1.5296697 3.53624257v9.3266249l-.1025883.307838c-.1972413.5918648-.5844452 1.3663955-1.2359985 2.1483339-1.1369295 1.3644453-2.7054891 2.2200603-4.6621275 2.2200603s-3.5251981-.855615-4.6621275-2.2200603c-.6515534-.7819384-1.0387573-1.5564691-1.2359986-2.1483339l-.1025882-.307838v-9.49211112l.0271994-.16323563c.0003718-.00223124.0059331-.04395123.0130438-.11863284.0578795-.60789543.0151831-1.31206203-.1877658-1.92083635-.357675-1.0728974-1.1048175-1.63323756-2.853906-1.63323756s-2.4962309.56034016-2.853906 1.63323756c-.2029489.60877432-.2456453 1.31294092-.1877657 1.92083635.0071106.07468161.0126719.1164016.0130437.11863284l.0271994.16323563v9.49211112l-.1025882.307838c-.1972413.5918648-.5844452 1.3663955-1.2359985 2.1483339-1.1369295 1.3644453-2.7054891 2.2200603-4.6621275 2.2200603-1.95663844 0-3.52519809-.855615-4.66212756-2.2200603-.65155332-.7819384-1.03875721-1.5564691-1.23599853-2.1483339l-.10258824-.307838v-9.49211112l.02719946-.16323563c.00037179-.00223124.00593306-.04395123.01304372-.11863284.05787955-.60789543.01518316-1.31206203-.18776576-1.92083635-.35767504-1.0728974-1.10481748-1.63323756-2.85390599-1.63323756-1.1045695 0-2-.8954305-2-2s.8954305-2 2-2c3.50216149 0 5.75582262 1.69019556 6.64859401 4.36819101.40667162 1.21986966.48124923 2.44983462.37506906 3.56502023-.00722829.07591706-.01476059.14450656-.0222345.20531746v8.4662772c.089223.1738292.22747258.3978617.4115918.6188258.42579375.5110012.92013593.780654 1.58912253.780654s1.1633287-.2696528 1.5891224-.780654c.1841193-.2209641.3223688-.4449966.4115918-.6188258v-8.4662772c-.0074739-.0608109-.0150062-.1294004-.0222345-.20531746-.1061801-1.11518561-.0316025-2.34515057.3750691-3.56502023.8927714-2.67799545 3.1464325-4.36819101 6.648594-4.36819101s5.7558226 1.69019556 6.648594 4.36819101c.4066716 1.21986966.4812493 2.44983462.3750691 3.56502023-.0072283.07591706-.0147606.14450656-.0222345.20531746v8.4662772c.089223.1738292.2274726.3978617.4115918.6188258.4257937.5110012.9201359.780654 1.5891225.780654s1.1633287-.2696528 1.5891225-.780654c.1841192-.2209641.3223688-.4449966.4115918-.6188258v-8.6033773c0-3.32212143 1.3010452-5.66389135 3.4717588-6.96625749 1.2992109-.77948947 2.5712657-1.03453568 3.5260983-1.03516992z" transform="translate(1.995 12.997143)"/></svg>

<?xml version="1.0" encoding="UTF-8"?>
<svg width="50px" height="50px" viewBox="0 0 50 50" version="1.1" xmlns="http://www.w3.org/2000/svg" xmlns:xlink="http://www.w3.org/1999/xlink">
    <!-- Generator: Sketch 52.2 (67145) - http://www.bohemiancoding.com/sketch -->
    <title>022-itineraire</title>
    <desc>Created with Sketch.</desc>
    <g id="022-itineraire" stroke="none" stroke-width="1" fill="none" fill-rule="evenodd">
        <g id="Group" transform="translate(1.995000, 12.997143)" fill="#000000" fill-rule="nonzero">
            <g id="046-itineraire">
                <g id="ICONSET-01">
                    <g id="046-itineraire">
                        <path d="M38.005,2.00000118 L38.005,-7.10542736e-15 L43.9964286,4.18430677 L38.005,8.50081633 L38.005,6.00000569 C37.7086096,6.00097076 37.1092083,6.121765 36.5368126,6.46518603 C35.5816333,7.03826632 35.0071429,8.07229998 35.0071429,10.0014286 L35.0071429,19.3280535 L34.9045546,19.6358915 C34.7073133,20.2277563 34.3201094,21.002287 33.6685561,21.7842254 C32.5316266,23.1486707 30.963067,24.0042857 29.0064286,24.0042857 C27.0497902,24.0042857 25.4812305,23.1486707 24.3443011,21.7842254 C23.6927477,21.002287 23.3055438,20.2277563 23.1083025,19.6358915 L23.0057143,19.3280535 L23.0057143,9.83594238 L23.0329137,9.67270675 C23.0332855,9.67047551 23.0388468,9.62875552 23.0459575,9.55407391 C23.103837,8.94617848 23.0611406,8.24201188 22.8581917,7.63323756 C22.5005167,6.56034016 21.7533742,6 20.0042857,6 C18.2551972,6 17.5080548,6.56034016 17.1503797,7.63323756 C16.9474308,8.24201188 16.9047344,8.94617848 16.962614,9.55407391 C16.9697246,9.62875552 16.9752859,9.67047551 16.9756577,9.67270675 L17.0028571,9.83594238 L17.0028571,19.3280535 L16.9002689,19.6358915 C16.7030276,20.2277563 16.3158237,21.002287 15.6642704,21.7842254 C14.5273409,23.1486707 12.9587813,24.0042857 11.0021429,24.0042857 C9.04550446,24.0042857 7.47694481,23.1486707 6.34001534,21.7842254 C5.68846202,21.002287 5.30125813,20.2277563 5.10401681,19.6358915 L5.00142857,19.3280535 L5.00142857,9.83594238 L5.02862803,9.67270675 C5.02899982,9.67047551 5.03456109,9.62875552 5.04167175,9.55407391 C5.0995513,8.94617848 5.05685491,8.24201188 4.85390599,7.63323756 C4.49623095,6.56034016 3.74908851,6 2,6 C0.8954305,6 0,5.1045695 0,4 C0,2.8954305 0.8954305,2 2,2 C5.50216149,2 7.75582262,3.69019556 8.64859401,6.36819101 C9.05526563,7.58806067 9.12984324,8.81802563 9.02366307,9.93321124 C9.01643478,10.0091283 9.00890248,10.0777178 9.00142857,10.1385287 L9.00142857,18.6048059 C9.09065157,18.7786351 9.22890115,19.0026676 9.41302037,19.2236317 C9.83881412,19.7346329 10.3331563,20.0042857 11.0021429,20.0042857 C11.6711295,20.0042857 12.1654716,19.7346329 12.5912653,19.2236317 C12.7753846,19.0026676 12.9136341,18.7786351 13.0028571,18.6048059 L13.0028571,10.1385287 C12.9953832,10.0777178 12.9878509,10.0091283 12.9806226,9.93321124 C12.8744425,8.81802563 12.9490201,7.58806067 13.3556917,6.36819101 C14.2484631,3.69019556 16.5021242,2 20.0042857,2 C23.5064472,2 25.7601083,3.69019556 26.6528797,6.36819101 C27.0595513,7.58806067 27.134129,8.81802563 27.0279488,9.93321124 C27.0207205,10.0091283 27.0131882,10.0777178 27.0057143,10.1385287 L27.0057143,18.6048059 C27.0949373,18.7786351 27.2331869,19.0026676 27.4173061,19.2236317 C27.8430998,19.7346329 28.337442,20.0042857 29.0064286,20.0042857 C29.6754152,20.0042857 30.1697573,19.7346329 30.5955511,19.2236317 C30.7796703,19.0026676 30.9179199,18.7786351 31.0071429,18.6048059 L31.0071429,10.0014286 C31.0071429,6.67930717 32.3081881,4.33753725 34.4789017,3.03517111 C35.7781126,2.25568164 37.0501674,2.00063543 38.005,2.00000119 Z" id="Combined-Shape"></path>
                    </g>
                </g>
            </g>
        </g>
    </g>
</svg>
